/* XPM */
static char *close_scalable[] = {
/* columns rows colors chars-per-pixel */
"32 32 2 1 ",
"  c None",
". c #ED6A5F",
/* pixels */
"                                ",
"                                ",
"                                ",
"                                ",
"                                ",
"                                ",
"                                ",
"                                ",
"                                ",
"                                ",
"                                ",
"           ..........           ",
"           ..........           ",
"           ..........           ",
"           ..........           ",
"           ..........           ",
"           ..........           ",
"           ..........           ",
"           ..........           ",
"           ..........           ",
"           ..........           ",
"                                ",
"                                ",
"                                ",
"                                ",
"                                ",
"                                ",
"                                ",
"                                ",
"                                ",
"                                ",
"                                "
};
