/* XPM */
static char *close_pressed_scalable[] = {
/* columns rows colors chars-per-pixel */
"32 32 2 1 ",
"  c None",
". c #460804",
/* pixels */
"                                ",
"                                ",
"                                ",
"                                ",
"                                ",
"                                ",
"                                ",
"                                ",
"                                ",
"                                ",
"                                ",
"           ..........           ",
"           ..........           ",
"           ..........           ",
"           ..........           ",
"           ..........           ",
"           ..........           ",
"           ..........           ",
"           ..........           ",
"           ..........           ",
"           ..........           ",
"                                ",
"                                ",
"                                ",
"                                ",
"                                ",
"                                ",
"                                ",
"                                ",
"                                ",
"                                ",
"                                "
};
