/* XPM */
static char *desk_scalable[] = {
/* columns rows colors chars-per-pixel */
"32 32 2 1 ",
"  c None",
". c #A3BE8C",
/* pixels */
"                                ",
"                                ",
"                                ",
"                                ",
"                                ",
"                                ",
"                                ",
"                                ",
"                                ",
"                                ",
"                                ",
"           ..........           ",
"           ..........           ",
"           ..........           ",
"           ..........           ",
"           ..........           ",
"           ..........           ",
"           ..........           ",
"           ..........           ",
"           ..........           ",
"           ..........           ",
"                                ",
"                                ",
"                                ",
"                                ",
"                                ",
"                                ",
"                                ",
"                                ",
"                                ",
"                                ",
"                                "
};
