/* XPM */
static char *max_toggled_scalable[] = {
/* columns rows colors chars-per-pixel */
"32 32 2 1 ",
"  c None",
". c #2A6218",
/* pixels */
"                                ",
"                                ",
"                                ",
"                                ",
"                                ",
"                                ",
"                                ",
"                                ",
"                                ",
"                                ",
"                                ",
"           ..........           ",
"           ..........           ",
"           ..........           ",
"           ..........           ",
"           ..........           ",
"           ..........           ",
"           ..........           ",
"           ..........           ",
"           ..........           ",
"           ..........           ",
"                                ",
"                                ",
"                                ",
"                                ",
"                                ",
"                                ",
"                                ",
"                                ",
"                                ",
"                                ",
"                                "
};
