/* XPM */
static char *shade_toggled_scalable[] = {
/* columns rows colors chars-per-pixel */
"32 32 2 1 ",
"  c None",
". c #6F6042",
/* pixels */
"                                ",
"                                ",
"                                ",
"                                ",
"                                ",
"                                ",
"                                ",
"                                ",
"                                ",
"                                ",
"                                ",
"           ..........           ",
"           ..........           ",
"           ..........           ",
"           ..........           ",
"           ..........           ",
"           ..........           ",
"           ..........           ",
"           ..........           ",
"           ..........           ",
"           ..........           ",
"                                ",
"                                ",
"                                ",
"                                ",
"                                ",
"                                ",
"                                ",
"                                ",
"                                ",
"                                ",
"                                "
};
